!!!COM: Palestrina, Giovanni Perluigi da
!!!OPR: Missa In semidupl. maj. (I)
!!!OMD: Credo
!!!OTL: Et vitam
**kern	**kern	**kern	**kern	**kern
*Ibass	*Itenor	*Itenor	*Icalto	*Icant
!Bassus	!Tenor 2	!Tenor 1	!Altus	!Cantus
*clefF4	*clefGv2	*clefGv2	*clefG2	*clefG2
*k[b-]	*k[b-]	*k[b-]	*k[b-]	*k[b-]
*F:ion	*F:ion	*F:ion	*F:ion	*F:ion
*M4/2	*M4/2	*M4/2	*M4/2	*M4/2
=178	=178	=178	=178	=178
0r	0r	0r	1r	1cc
.	.	.	1f	1a
=179	=179	=179	=179	=179
0r	1r	0r	1d	1b-
.	1c	.	1e-	1g
=180	=180	=180	=180	=180
0r	1A	0r	1c	0f
.	1B-	.	[1d	.
=181	=181	=181	=181	=181
0r	1G	0r	2d]	1b-
.	.	.	2e	.
.	1F	.	4f	1a
.	.	.	4d	.
.	.	.	[2f	.
=182	=182	=182	=182	=182
1r	1C	1c	2f]	1g
.	.	.	2e	.
1F	1c	1A	2f	[1f
.	.	.	4a	.
.	.	.	4g	.
=183	=183	=183	=183	=183
1D	2.d	1B-	4f	2f]
.	.	.	4e	.
.	.	.	1d	2f
.	4c	.	.	.
1E-	2B-	1G	.	1g
.	2G	.	2c	.
=184	=184	=184	=184	=184
1D	1A	1F	2d	2r
.	.	.	2f	1d
2.BB-	2.D	1B-	2.f	.
.	.	.	.	[2f
4C	4E	.	4e	.
=185	=185	=185	=185	=185
4D	1F	1A	2d	4f]
4E	.	.	.	4g
2.F	.	.	1c	4a
.	.	.	.	4b-
.	1C	1G	.	1cc
8E	.	.	.	.
8D	.	.	.	.
2E	.	.	2c	.
=186	=186	=186	=186	=186
1F	2r	1F	4A	2cc
.	.	.	4B-	.
.	2F	.	4c	2a
.	.	.	4d	.
1C	2E	1G	4e	2g
.	.	.	4f	.
.	2C	.	2g	2cc
=187	=187	=187	=187	=187
1AA	1E	0A	0c	2.cc
.	.	.	.	4b-
1FF	2F	.	.	4a
.	.	.	.	4g
.	2F	.	.	[2f
=188	=188	=188	=188	=188
1.C	1G	1.G	1.c	2f]
.	.	.	.	4e
.	.	.	.	4d
.	1C	.	.	2e
2C	.	2G	2c	2e
=189	=189	=189	=189	=189
[0FF	[0C	[0F	[0A	[0f
=190	=190	=190	=190	=190
0FF]	0C]	0F]	0A]	0f]
=191	=191	=191	=191	=191
0r	0r	1B-	0r	0r
.	.	1G	.	.
=192	=192	=192	=192	=192
0r	0r	1F	0r	1f
.	.	2G	.	1d
.	.	[2B-	.	.
=193	=193	=193	=193	=193
1F	0r	4B-]	0r	1c
.	.	4A	.	.
.	.	2A	.	.
1D	.	4B-	.	2d
.	.	4A	.	.
.	.	4A	.	[2f
.	.	8G	.	.
.	.	8F	.	.
=194	=194	=194	=194	=194
1C	0r	1G	1c	2f]
.	.	.	.	2e
2D	.	1F	1A	1f
[2F	.	.	.	.
=195	=195	=195	=195	=195
4F]	1r	2C	1G	1g
8E	.	.	.	.
8D	.	.	.	.
2E	.	2.c	.	.
2F	1F	.	2A	1c
.	.	4B-	.	.
2FF	.	[2A	[2c	.
=196	=196	=196	=196	=196
1GG	1D	4A]	4c]	2.g
.	.	4G	8B-	.
.	.	.	8A	.
.	.	1G	2B-	.
.	.	.	.	4f
1AA	1C	.	2c	4e
.	.	.	.	4c
.	.	2F	2A	[2cc
=197	=197	=197	=197	=197
2.GG	0D	4G	2r	2cc]
.	.	4A	.	.
.	.	4B-	2d	2.b-
4AA	.	4c	.	.
1BB-	.	1d	4B-	.
.	.	.	4c	4a
.	.	.	4d	2f
.	.	.	4B-	.
=198	=198	=198	=198	=198
0FF	0F	2.A	4c	0a
.	.	.	4B-	.
.	.	.	4A	.
.	.	4B-	4G	.
.	.	[1c	2F	.
.	.	.	[2f	.
=199	=199	=199	=199	=199
0C	0G	0c]	2f]	1g
.	.	.	4e	.
.	.	.	4d	.
.	.	.	1e	1cc
=200	=200	=200	=200	=200
[0FF	[0F	[0c	[0f	[0a
=201	=201	=201	=201	=201
0FF]	0F]	0c]	0f]	0a]
==	==	==	==	==
*-	*-	*-	*-	*-
!!!CDT: 1525/^1526/-1594/2/2
!!!OCY: Italia
!!!AGN: Mass (Paraphrase)
!!!AST: renaissance, vocal
!!!ASW: Gregorian Mass
!!!PWK: Masses, Book Mantuan II
!!!RNB: Cadence finals: C
!!!YOR: Le Opere Complete, v. 19, p. 129
!!!YOO: Rome, Italy: Fratelli Scalera
!!!END: 1992//
!!!EED: John Miller
!!!YEC: Copyright 2000, John Miller
!!!YEN: United States of America
!!!YEM: Rights to all derivative electronic formats reserved.
!!!YEM: Refer to licensing agreement for further details.
!!!YEM: This file must be accompanied by the licensing agreement.
!!!YEM: A copy of the licensing agreement may be found at http://www.music-cog.ohio-state.edu/HumdrumDatabases/Palestrina/license.txt
!!!EMD: converted to Humdrum by Bret Aarden
